svgs/duotone/crop-simple.svg

<svg xmlns="http://www.w3.org/2000/svg" viewBox="0 0 512 512"><!--! Font Awesome Pro 6.0.0-alpha3 by @fontawesome - https://fontawesome.com License - https://fontawesome.com/license (Commercial License) --><defs><style>.fa-secondary{opacity:.4}</style></defs><path class="fa-primary" d="M416 64H192v96h160v328c0 13.25 10.75 24 24 24h48c13.25 0 24-10.75 24-24V96C448 78.38 433.6 64 416 64zM0 88v48C0 149.3 10.75 160 24 160H64V64H24C10.75 64 0 74.75 0 88z"/><path class="fa-secondary" d="M160 24C160 10.75 149.3 0 136 0h-48C74.75 0 64 10.75 64 24V416c0 17.62 14.38 32 32 32h224v-96H160V24zM488 352H448v96h40c13.25 0 24-10.75 24-24v-48C512 362.8 501.3 352 488 352z"/></svg>

<svg xmlns="http://www.w3.org/2000/svg" viewBox="0 0 512 512"><!-- Font Awesome Pro 6.0.0-alpha2 by @fontawesome - https://fontawesome.com License - https://fontawesome.com/license (Commercial License) --><defs><style>.fa-secondary{opacity:.4}</style></defs><path d="M160 24C160 10.75 149.25 0 136 0H88C74.75 0 64 10.75 64 24V416C64 433.625 78.375 448 96 448H320V352H160V24ZM488 352H448V448H488C501.25 448 512 437.25 512 424V376C512 362.75 501.25 352 488 352Z" class="fa-secondary"/><path d="M416 64H192V160H352V488C352 501.25 362.75 512 376 512H424C437.25 512 448 501.25 448 488V96C448 78.375 433.625 64 416 64ZM0 88V136C0 149.25 10.75 160 24 160H64V64H24C10.75 64 0 74.75 0 88Z" class="fa-primary"/></svg>
